demo/img/redNumbers/6.svg

<?xml version="1.0" encoding="UTF-8"?>
<svg width="151px" height="163px" viewBox="0 0 151 163" version="1.1" xmlns="http://www.w3.org/2000/svg" xmlns:xlink="http://www.w3.org/1999/xlink">
    <!-- Generator: Sketch 52.6 (67491) - http://www.bohemiancoding.com/sketch -->
    <title>6</title>
    <desc>Created with Sketch.</desc>
    <g id="-" stroke="none" stroke-width="1" fill="none" fill-rule="evenodd" fill-opacity="0">
        <path d="M80.81775,60.5730794 C103.478197,60.5730794 120.689775,65.083451 132.453,74.1043294 C144.216225,83.1252078 150.09775,95.3573355 150.09775,110.801079 C150.09775,126.82216 143.927562,139.415117 131.587,148.580329 C119.246438,157.745542 101.962694,162.328079 79.73525,162.328079 C54.0437882,162.328079 34.4507341,155.688812 20.9555,142.410079 C7.46026586,129.131346 0.71275,110.296035 0.71275,85.9035794 C0.71275,68.5834928 3.74371969,53.5368933 9.80575,40.7633294 C15.8677803,27.9897655 24.7441915,18.139114 36.43525,11.2110794 C48.1263085,4.28304476 62.1986677,0.819079395 78.65275,0.819079395 C91.0654787,0.819079395 102.070785,2.69539397 111.669,6.4480794 C121.267215,10.2007648 128.916805,15.1080491 134.618,21.1700794 C140.319195,27.2321097 143.891409,33.5827129 145.33475,40.2220794 L121.73625,40.2220794 C118.560901,34.1600491 113.473202,28.964101 106.473,24.6340794 C99.4727983,20.3040577 89.8386447,18.1390794 77.57025,18.1390794 C65.5905234,18.1390794 55.4872911,20.8453023 47.26025,26.2578294 C39.0332089,31.6703565 32.8991035,38.850868 28.85775,47.7995794 C24.8163965,56.7482908 22.79575,66.6350253 22.79575,77.4600794 L22.79575,81.7900794 C27.5587738,75.0063788 34.8114513,69.7743478 44.554,66.0938294 C54.2965487,62.413311 66.3843445,60.5730794 80.81775,60.5730794 Z M128.01475,109.718579 C128.01475,99.7595296 123.64871,91.9656075 114.9165,86.3365794 C106.18429,80.7075513 93.8799961,77.8930794 78.00325,77.8930794 C62.126504,77.8930794 49.8222103,80.7075513 41.09,86.3365794 C32.3577897,91.9656075 27.99175,99.7595296 27.99175,109.718579 L27.99175,113.182579 C27.99175,122.852961 32.4299556,130.574717 41.3065,136.348079 C50.1830444,142.121442 62.4151721,145.008079 78.00325,145.008079 C93.5913279,145.008079 105.823456,142.121442 114.7,136.348079 C123.576544,130.574717 128.01475,122.852961 128.01475,113.182579 L128.01475,109.718579 Z" id="6" stroke="#870000" stroke-width="0.3" fill="#171717"></path>
    </g>
</svg>

<?xml version="1.0" encoding="utf-8"?>
<!-- Generator: Adobe Illustrator 16.0.0, SVG Export Plug-In . SVG Version: 6.00 Build 0)  -->
<!DOCTYPE svg PUBLIC "-//W3C//DTD SVG 1.1//EN" "http://www.w3.org/Graphics/SVG/1.1/DTD/svg11.dtd">
<svg version="1.1" id="Capa_1" xmlns="http://www.w3.org/2000/svg" xmlns:xlink="http://www.w3.org/1999/xlink" x="0px" y="0px"
	 width="151px" height="163px" viewBox="0 0 151 163" enable-background="new 0 0 151 163" xml:space="preserve">
<title>6</title>
<desc>Created with Sketch.</desc>
<g id="_x2D_">
	<path id="_x36_" fill="none" stroke="#1E7498" stroke-width="0.3" d="M80.818,60.573c22.66,0,39.871,4.51,51.635,13.531
		c11.764,9.021,17.645,21.253,17.645,36.696c0,16.021-6.17,28.614-18.511,37.779c-12.341,9.166-29.624,13.748-51.852,13.748
		c-25.691,0-45.285-6.639-58.78-19.918S0.713,110.296,0.713,85.904c0-17.321,3.031-32.367,9.093-45.141
		c6.062-12.773,14.938-22.624,26.629-29.552C48.126,4.283,62.199,0.819,78.652,0.819c12.413,0,23.418,1.876,33.017,5.629
		c9.599,3.752,17.248,8.66,22.949,14.722s9.273,12.413,10.717,19.052h-23.599c-3.176-6.062-8.264-11.258-15.264-15.588
		c-7-4.33-16.634-6.495-28.902-6.495c-11.98,0-22.083,2.706-30.31,8.119S32.899,38.851,28.858,47.8
		c-4.042,8.948-6.062,18.835-6.062,29.66v4.33c4.763-6.784,12.016-12.016,21.758-15.696C54.296,62.413,66.384,60.573,80.818,60.573z
		 M128.015,109.719c0-9.959-4.366-17.753-13.099-23.383c-8.732-5.628-21.036-8.443-36.912-8.443
		c-15.877,0-28.182,2.814-36.914,8.443c-8.732,5.63-13.098,13.424-13.098,23.383v3.464c0,9.671,4.438,17.392,13.315,23.165
		s21.108,8.66,36.697,8.66c15.588,0,27.819-2.887,36.696-8.66c8.876-5.773,13.314-13.494,13.314-23.165V109.719z"/>
</g>
</svg>
